build/images/img/envelope2.svg

<?xml version="1.0" encoding="utf-8"?>
<!-- Generated by IcoMoon.io -->
<!DOCTYPE svg PUBLIC "-//W3C//DTD SVG 1.1//EN" "http://www.w3.org/Graphics/SVG/1.1/DTD/svg11.dtd">
<svg version="1.1" xmlns="http://www.w3.org/2000/svg" xmlns:xlink="http://www.w3.org/1999/xlink">
<path fill="#0674ec" d="M17.5 6h-16c-0.827 0-1.5 0.673-1.5 1.5v9c0 0.827 0.673 1.5 1.5 1.5h16c0.827 0 1.5-0.673 1.5-1.5v-9c0-0.827-0.673-1.5-1.5-1.5zM17.5 7c0.030 0 0.058 0.003 0.087 0.008l-7.532 5.021c-0.29 0.193-0.819 0.193-1.109 0l-7.532-5.021c0.028-0.005 0.057-0.008 0.087-0.008h16zM17.5 17h-16c-0.276 0-0.5-0.224-0.5-0.5v-8.566l7.391 4.927c0.311 0.207 0.71 0.311 1.109 0.311s0.798-0.104 1.109-0.311l7.391-4.927v8.566c0 0.276-0.224 0.5-0.5 0.5z"></path>
</svg>

<svg xmlns="http://www.w3.org/2000/svg"><path fill="#0674ec" d="M17.5 6h-16C.673 6 0 6.673 0 7.5v9c0 .827.673 1.5 1.5 1.5h16c.827 0 1.5-.673 1.5-1.5v-9c0-.827-.673-1.5-1.5-1.5zm0 1c.03 0 .058.003.087.008l-7.532 5.021c-.29.193-.819.193-1.109 0L1.414 7.008A.494.494 0 011.501 7h16zm0 10h-16a.5.5 0 01-.5-.5V7.934l7.391 4.927c.311.207.71.311 1.109.311s.798-.104 1.109-.311L18 7.934V16.5a.5.5 0 01-.5.5z"/></svg>
